svg/300/outlined/bloodtype-fill.svg

<svg xmlns="http://www.w3.org/2000/svg" width="48" height="48" viewBox="0 -960 960 960"><path d="M479.929-100.001q-128.467 0-214.197-88.268Q180.001-276.537 180.001-408q0-93.076 74.5-204.037Q329.001-722.999 480-853.844q150.999 130.845 225.499 241.807 74.5 110.961 74.5 204.037 0 131.463-85.801 219.731-85.802 88.268-214.269 88.268ZM370.001-264.616h219.998v-45.383H370.001v45.383Zm87.307-105.385h45.384v-87.307h87.307v-45.384h-87.307v-87.307h-45.384v87.307h-87.307v45.384h87.307v87.307Z"/></svg>

<svg xmlns="http://www.w3.org/2000/svg" width="48" height="48" viewBox="0 -960 960 960"><path d="M479.93-100q-128.47 0-214.2-88.27Q180-276.54 180-408q0-93.08 74.5-204.04T480-853.84Q631-723 705.5-612.04 780-501.08 780-408q0 131.46-85.8 219.73Q608.4-100 479.93-100ZM370-264.62h220V-310H370v45.38ZM457.31-370h45.38v-87.31H590v-45.38h-87.31V-590h-45.38v87.31H370v45.38h87.31V-370Z"/></svg>
